luts/TealOrange_Synth.cube
# Synthesised teal-orange split-tone test LUT
# Shadows pulled toward teal (low R, lifted G/B), highlights toward orange.
TITLE "TealOrange Synth Test"
LUT_3D_SIZE 5
DOMAIN_MIN 0.0 0.0 0.0
DOMAIN_MAX 1.0 1.0 1.0
0.020000 0.120000 0.180000
0.190197 0.128504 0.177874
0.360394 0.137008 0.175748
0.530591 0.145512 0.173622
0.700788 0.154016 0.171496
0.087944 0.298608 0.172848
0.258141 0.307112 0.170722
0.428338 0.315616 0.168596
0.598535 0.324120 0.166470
0.768732 0.332624 0.164344
0.155888 0.477216 0.165696
0.326085 0.485720 0.163570
0.496282 0.494224 0.161444
0.666479 0.502728 0.159318
0.836676 0.511232 0.157192
0.223832 0.655824 0.158544
0.394029 0.664328 0.156418
0.564226 0.672832 0.154292
0.734423 0.681336 0.152166
0.904620 0.689840 0.150040
0.291776 0.834432 0.151392
0.461973 0.842936 0.149266
0.632170 0.851440 0.147140
0.802367 0.859944 0.145014
0.972564 0.868448 0.142888
0.026859 0.122888 0.329278
0.197056 0.131392 0.327152
0.367253 0.139896 0.325026
0.537450 0.148400 0.322900
0.707647 0.156904 0.320774
0.094803 0.301496 0.322126
0.265000 0.310000 0.320000
0.435197 0.318504 0.317874
0.605394 0.327008 0.315748
0.775591 0.335512 0.313622
0.162747 0.480104 0.314974
0.332944 0.488608 0.312848
0.503141 0.497112 0.310722
0.673338 0.505616 0.308596
0.843535 0.514120 0.306470
0.230691 0.658712 0.307822
0.400888 0.667216 0.305696
0.571085 0.675720 0.303570
0.741282 0.684224 0.301444
0.911479 0.692728 0.299318
0.298635 0.837320 0.300670
0.468832 0.845824 0.298544
0.639029 0.854328 0.296418
0.809226 0.862832 0.294292
0.979423 0.871336 0.292166
0.033718 0.125776 0.478556
0.203915 0.134280 0.476430
0.374112 0.142784 0.474304
0.544309 0.151288 0.472178
0.714506 0.159792 0.470052
0.101662 0.304384 0.471404
0.271859 0.312888 0.469278
0.442056 0.321392 0.467152
0.612253 0.329896 0.465026
0.782450 0.338400 0.462900
0.169606 0.482992 0.464252
0.339803 0.491496 0.462126
0.510000 0.500000 0.460000
0.680197 0.508504 0.457874
0.850394 0.517008 0.455748
0.237550 0.661600 0.457100
0.407747 0.670104 0.454974
0.577944 0.678608 0.452848
0.748141 0.687112 0.450722
0.918338 0.695616 0.448596
0.305494 0.840208 0.449948
0.475691 0.848712 0.447822
0.645888 0.857216 0.445696
0.816085 0.865720 0.443570
0.986282 0.874224 0.441444
0.040577 0.128664 0.627834
0.210774 0.137168 0.625708
0.380971 0.145672 0.623582
0.551168 0.154176 0.621456
0.721365 0.162680 0.619330
0.108521 0.307272 0.620682
0.278718 0.315776 0.618556
0.448915 0.324280 0.616430
0.619112 0.332784 0.614304
0.789309 0.341288 0.612178
0.176465 0.485880 0.613530
0.346662 0.494384 0.611404
0.516859 0.502888 0.609278
0.687056 0.511392 0.607152
0.857253 0.519896 0.605026
0.244409 0.664488 0.606378
0.414606 0.672992 0.604252
0.584803 0.681496 0.602126
0.755000 0.690000 0.600000
0.925197 0.698504 0.597874
0.312353 0.843096 0.599226
0.482550 0.851600 0.597100
0.652747 0.860104 0.594974
0.822944 0.868608 0.592848
0.993141 0.877112 0.590722
0.047436 0.131552 0.777112
0.217633 0.140056 0.774986
0.387830 0.148560 0.772860
0.558027 0.157064 0.770734
0.728224 0.165568 0.768608
0.115380 0.310160 0.769960
0.285577 0.318664 0.767834
0.455774 0.327168 0.765708
0.625971 0.335672 0.763582
0.796168 0.344176 0.761456
0.183324 0.488768 0.762808
0.353521 0.497272 0.760682
0.523718 0.505776 0.758556
0.693915 0.514280 0.756430
0.864112 0.522784 0.754304
0.251268 0.667376 0.755656
0.421465 0.675880 0.753530
0.591662 0.684384 0.751404
0.761859 0.692888 0.749278
0.932056 0.701392 0.747152
0.319212 0.845984 0.748504
0.489409 0.854488 0.746378
0.659606 0.862992 0.744252
0.829803 0.871496 0.742126
1.000000 0.880000 0.740000
