luts/TealOrange_Synth.cube
# Synthesised teal-orange split-tone test LUT
# Shadows pulled toward teal (low R, lifted G/B), highlights toward orange.
TITLE "TealOrange Synth Test"
LUT_3D_SIZE 17
DOMAIN_MIN 0.0 0.0 0.0
DOMAIN_MAX 1.0 1.0 1.0
0.020000 0.120000 0.180000
0.062549 0.122126 0.179469
0.105098 0.124252 0.178937
0.147648 0.126378 0.178405
0.190197 0.128504 0.177874
0.232746 0.130630 0.177342
0.275295 0.132756 0.176811
0.317845 0.134882 0.176280
0.360394 0.137008 0.175748
0.402943 0.139134 0.175217
0.445493 0.141260 0.174685
0.488042 0.143386 0.174154
0.530591 0.145512 0.173622
0.573140 0.147638 0.173091
0.615690 0.149764 0.172559
0.658239 0.151890 0.172027
0.700788 0.154016 0.171496
0.036986 0.164652 0.178212
0.079535 0.166778 0.177681
0.122085 0.168904 0.177149
0.164634 0.171030 0.176618
0.207183 0.173156 0.176086
0.249732 0.175282 0.175555
0.292281 0.177408 0.175023
0.334831 0.179534 0.174492
0.377380 0.181660 0.173960
0.419929 0.183786 0.173428
0.462479 0.185912 0.172897
0.505028 0.188038 0.172366
0.547577 0.190164 0.171834
0.590126 0.192290 0.171303
0.632676 0.194416 0.170771
0.675225 0.196542 0.170240
0.717774 0.198668 0.169708
0.053972 0.209304 0.176424
0.096521 0.211430 0.175893
0.139070 0.213556 0.175361
0.181620 0.215682 0.174829
0.224169 0.217808 0.174298
0.266718 0.219934 0.173767
0.309267 0.222060 0.173235
0.351817 0.224186 0.172704
0.394366 0.226312 0.172172
0.436915 0.228438 0.171641
0.479465 0.230564 0.171109
0.522014 0.232690 0.170578
0.564563 0.234816 0.170046
0.607112 0.236942 0.169515
0.649662 0.239068 0.168983
0.692211 0.241194 0.168452
0.734760 0.243320 0.167920
0.070958 0.253956 0.174636
0.113507 0.256082 0.174105
0.156057 0.258208 0.173573
0.198606 0.260334 0.173042
0.241155 0.262460 0.172510
0.283704 0.264586 0.171979
0.326253 0.266712 0.171447
0.368803 0.268838 0.170915
0.411352 0.270964 0.170384
0.453901 0.273090 0.169853
0.496451 0.275216 0.169321
0.539000 0.277342 0.168790
0.581549 0.279468 0.168258
0.624098 0.281594 0.167727
0.666648 0.283720 0.167195
0.709197 0.285846 0.166663
0.751746 0.287972 0.166132
0.087944 0.298608 0.172848
0.130493 0.300734 0.172317
0.173042 0.302860 0.171785
0.215592 0.304986 0.171254
0.258141 0.307112 0.170722
0.300690 0.309238 0.170191
0.343239 0.311364 0.169659
0.385789 0.313490 0.169128
0.428338 0.315616 0.168596
0.470887 0.317742 0.168065
0.513437 0.319868 0.167533
0.555986 0.321994 0.167001
0.598535 0.324120 0.166470
0.641084 0.326246 0.165938
0.683634 0.328372 0.165407
0.726183 0.330498 0.164876
0.768732 0.332624 0.164344
0.104930 0.343260 0.171060
0.147479 0.345386 0.170529
0.190028 0.347512 0.169997
0.232578 0.349638 0.169466
0.275127 0.351764 0.168934
0.317676 0.353890 0.168403
0.360225 0.356016 0.167871
0.402775 0.358142 0.167340
0.445324 0.360268 0.166808
0.487873 0.362394 0.166277
0.530423 0.364520 0.165745
0.572972 0.366646 0.165214
0.615521 0.368772 0.164682
0.658070 0.370898 0.164151
0.700620 0.373024 0.163619
0.743169 0.375150 0.163088
0.785718 0.377276 0.162556
0.121916 0.387912 0.169272
0.164465 0.390038 0.168741
0.207014 0.392164 0.168209
0.249564 0.394290 0.167678
0.292113 0.396416 0.167146
0.334662 0.398542 0.166614
0.377211 0.400668 0.166083
0.419761 0.402794 0.165552
0.462310 0.404920 0.165020
0.504859 0.407046 0.164489
0.547408 0.409172 0.163957
0.589958 0.411298 0.163426
0.632507 0.413424 0.162894
0.675056 0.415550 0.162363
0.717606 0.417676 0.161831
0.760155 0.419802 0.161300
0.802704 0.421928 0.160768
0.138902 0.432564 0.167484
0.181451 0.434690 0.166953
0.224000 0.436816 0.166421
0.266550 0.438942 0.165890
0.309099 0.441068 0.165358
0.351648 0.443194 0.164826
0.394197 0.445320 0.164295
0.436747 0.447446 0.163764
0.479296 0.449572 0.163232
0.521845 0.451698 0.162701
0.564395 0.453824 0.162169
0.606944 0.455950 0.161638
0.649493 0.458076 0.161106
0.692042 0.460202 0.160575
0.734592 0.462328 0.160043
0.777141 0.464454 0.159512
0.819690 0.466580 0.158980
0.155888 0.477216 0.165696
0.198437 0.479342 0.165164
0.240986 0.481468 0.164633
0.283536 0.483594 0.164102
0.326085 0.485720 0.163570
0.368634 0.487846 0.163039
0.411183 0.489972 0.162507
0.453733 0.492098 0.161976
0.496282 0.494224 0.161444
0.538831 0.496350 0.160913
0.581380 0.498476 0.160381
0.623930 0.500602 0.159850
0.666479 0.502728 0.159318
0.709028 0.504854 0.158786
0.751578 0.506980 0.158255
0.794127 0.509106 0.157724
0.836676 0.511232 0.157192
0.172874 0.521868 0.163908
0.215423 0.523994 0.163377
0.257972 0.526120 0.162845
0.300522 0.528246 0.162313
0.343071 0.530372 0.161782
0.385620 0.532498 0.161251
0.428169 0.534624 0.160719
0.470719 0.536750 0.160187
0.513268 0.538876 0.159656
0.555817 0.541002 0.159125
0.598367 0.543128 0.158593
0.640916 0.545254 0.158061
0.683465 0.547380 0.157530
0.726014 0.549506 0.156999
0.768564 0.551632 0.156467
0.811113 0.553758 0.155936
0.853662 0.555884 0.155404
0.189860 0.566520 0.162120
0.232409 0.568646 0.161589
0.274958 0.570772 0.161057
0.317508 0.572898 0.160526
0.360057 0.575024 0.159994
0.402606 0.577150 0.159463
0.445155 0.579276 0.158931
0.487705 0.581402 0.158400
0.530254 0.583528 0.157868
0.572803 0.585654 0.157336
0.615352 0.587780 0.156805
0.657902 0.589906 0.156274
0.700451 0.592032 0.155742
0.743000 0.594158 0.155211
0.785550 0.596284 0.154679
0.828099 0.598410 0.154147
0.870648 0.600536 0.153616
0.206846 0.611172 0.160332
0.249395 0.613298 0.159801
0.291944 0.615424 0.159269
0.334494 0.617550 0.158738
0.377043 0.619676 0.158206
0.419592 0.621802 0.157675
0.462141 0.623928 0.157143
0.504691 0.626054 0.156612
0.547240 0.628180 0.156080
0.589789 0.630306 0.155549
0.632339 0.632432 0.155017
0.674888 0.634558 0.154486
0.717437 0.636684 0.153954
0.759986 0.638810 0.153423
0.802536 0.640936 0.152891
0.845085 0.643062 0.152359
0.887634 0.645188 0.151828
0.223832 0.655824 0.158544
0.266381 0.657950 0.158013
0.308930 0.660076 0.157481
0.351480 0.662202 0.156949
0.394029 0.664328 0.156418
0.436578 0.666454 0.155887
0.479127 0.668580 0.155355
0.521677 0.670706 0.154824
0.564226 0.672832 0.154292
0.606775 0.674958 0.153761
0.649325 0.677084 0.153229
0.691874 0.679210 0.152698
0.734423 0.681336 0.152166
0.776972 0.683462 0.151635
0.819522 0.685588 0.151103
0.862071 0.687714 0.150571
0.904620 0.689840 0.150040
0.240818 0.700476 0.156756
0.283367 0.702602 0.156224
0.325916 0.704728 0.155693
0.368466 0.706854 0.155162
0.411015 0.708980 0.154630
0.453564 0.711106 0.154099
0.496113 0.713232 0.153567
0.538663 0.715358 0.153036
0.581212 0.717484 0.152504
0.623761 0.719610 0.151973
0.666311 0.721736 0.151441
0.708860 0.723862 0.150910
0.751409 0.725988 0.150378
0.793958 0.728114 0.149846
0.836507 0.730240 0.149315
0.879057 0.732366 0.148783
0.921606 0.734492 0.148252
0.257804 0.745128 0.154968
0.300353 0.747254 0.154437
0.342902 0.749380 0.153905
0.385452 0.751506 0.153374
0.428001 0.753632 0.152842
0.470550 0.755758 0.152311
0.513100 0.757884 0.151779
0.555649 0.760010 0.151247
0.598198 0.762136 0.150716
0.640747 0.764262 0.150185
0.683296 0.766388 0.149653
0.725846 0.768514 0.149121
0.768395 0.770640 0.148590
0.810944 0.772766 0.148058
0.853494 0.774892 0.147527
0.896043 0.777018 0.146996
0.938592 0.779144 0.146464
0.274790 0.789780 0.153180
0.317339 0.791906 0.152649
0.359889 0.794032 0.152117
0.402438 0.796158 0.151586
0.444987 0.798284 0.151054
0.487536 0.800410 0.150523
0.530085 0.802536 0.149991
0.572635 0.804662 0.149459
0.615184 0.806788 0.148928
0.657733 0.808914 0.148396
0.700282 0.811040 0.147865
0.742832 0.813166 0.147333
0.785381 0.815292 0.146802
0.827930 0.817418 0.146271
0.870480 0.819544 0.145739
0.913029 0.821670 0.145208
0.955578 0.823796 0.144676
0.291776 0.834432 0.151392
0.334325 0.836558 0.150861
0.376875 0.838684 0.150329
0.419424 0.840810 0.149798
0.461973 0.842936 0.149266
0.504522 0.845062 0.148734
0.547071 0.847188 0.148203
0.589621 0.849314 0.147671
0.632170 0.851440 0.147140
0.674719 0.853566 0.146609
0.717268 0.855692 0.146077
0.759818 0.857818 0.145546
0.802367 0.859944 0.145014
0.844916 0.862070 0.144483
0.887466 0.864196 0.143951
0.930015 0.866322 0.143420
0.972564 0.868448 0.142888
0.021715 0.120722 0.217320
0.064264 0.122848 0.216788
0.106813 0.124974 0.216256
0.149362 0.127100 0.215725
0.191912 0.129226 0.215194
0.234461 0.131352 0.214662
0.277010 0.133478 0.214131
0.319559 0.135604 0.213599
0.362109 0.137730 0.213068
0.404658 0.139856 0.212536
0.447207 0.141982 0.212005
0.489756 0.144108 0.211473
0.532306 0.146234 0.210942
0.574855 0.148360 0.210410
0.617404 0.150486 0.209878
0.659953 0.152612 0.209347
0.702503 0.154738 0.208816
0.038701 0.165374 0.215532
0.081250 0.167500 0.215000
0.123799 0.169626 0.214469
0.166348 0.171752 0.213937
0.208898 0.173878 0.213405
0.251447 0.176004 0.212874
0.293996 0.178130 0.212343
0.336545 0.180256 0.211811
0.379095 0.182382 0.211280
0.421644 0.184508 0.210748
0.464193 0.186634 0.210217
0.506742 0.188760 0.209685
0.549292 0.190886 0.209154
0.591841 0.193012 0.208622
0.634390 0.195138 0.208091
0.676940 0.197264 0.207559
0.719489 0.199390 0.207028
0.055687 0.210026 0.213744
0.098236 0.212152 0.213212
0.140785 0.214278 0.212681
0.183335 0.216404 0.212149
0.225884 0.218530 0.211618
0.268433 0.220656 0.211086
0.310982 0.222782 0.210555
0.353531 0.224908 0.210023
0.396081 0.227034 0.209491
0.438630 0.229160 0.208960
0.481179 0.231286 0.208429
0.523729 0.233412 0.207897
0.566278 0.235538 0.207366
0.608827 0.237664 0.206834
0.651376 0.239790 0.206303
0.693925 0.241916 0.205771
0.736475 0.244042 0.205240
0.072673 0.254678 0.211956
0.115222 0.256804 0.211424
0.157771 0.258930 0.210893
0.200321 0.261056 0.210361
0.242870 0.263182 0.209830
0.285419 0.265308 0.209298
0.327968 0.267434 0.208767
0.370518 0.269560 0.208235
0.413067 0.271686 0.207704
0.455616 0.273812 0.207172
0.498165 0.275938 0.206641
0.540714 0.278064 0.206109
0.583264 0.280190 0.205578
0.625813 0.282316 0.205046
0.668362 0.284442 0.204515
0.710912 0.286568 0.203983
0.753461 0.288694 0.203452
0.089659 0.299330 0.210168
0.132208 0.301456 0.209636
0.174757 0.303582 0.209105
0.217307 0.305708 0.208573
0.259856 0.307834 0.208042
0.302405 0.309960 0.207510
0.344954 0.312086 0.206978
0.387504 0.314212 0.206447
0.430053 0.316338 0.205916
0.472602 0.318464 0.205384
0.515151 0.320590 0.204853
0.557700 0.322716 0.204321
0.600250 0.324842 0.203790
0.642799 0.326968 0.203258
0.685348 0.329094 0.202727
0.727897 0.331220 0.202195
0.770447 0.333346 0.201664
0.106645 0.343982 0.208380
0.149194 0.346108 0.207848
0.191743 0.348234 0.207317
0.234292 0.350360 0.206785
0.276842 0.352486 0.206254
0.319391 0.354612 0.205722
0.361940 0.356738 0.205191
0.404490 0.358864 0.204659
0.447039 0.360990 0.204128
0.489588 0.363116 0.203596
0.532137 0.365242 0.203065
0.574686 0.367368 0.202533
0.617236 0.369494 0.202002
0.659785 0.371620 0.201470
0.702334 0.373746 0.200939
0.744884 0.375872 0.200407
0.787433 0.377998 0.199876
0.123631 0.388634 0.206592
0.166180 0.390760 0.206060
0.208729 0.392886 0.205529
0.251278 0.395012 0.204997
0.293828 0.397138 0.204466
0.336377 0.399264 0.203934
0.378926 0.401390 0.203403
0.421476 0.403516 0.202871
0.464025 0.405642 0.202340
0.506574 0.407768 0.201808
0.549123 0.409894 0.201276
0.591672 0.412020 0.200745
0.634222 0.414146 0.200214
0.676771 0.416272 0.199682
0.719320 0.418398 0.199151
0.761869 0.420524 0.198619
0.804419 0.422650 0.198087
0.140617 0.433286 0.204804
0.183166 0.435412 0.204272
0.225715 0.437538 0.203741
0.268264 0.439664 0.203209
0.310814 0.441790 0.202678
0.353363 0.443916 0.202146
0.395912 0.446042 0.201615
0.438462 0.448168 0.201083
0.481011 0.450294 0.200552
0.523560 0.452420 0.200020
0.566109 0.454546 0.199489
0.608658 0.456672 0.198957
0.651208 0.458798 0.198426
0.693757 0.460924 0.197894
0.736306 0.463050 0.197363
0.778856 0.465176 0.196831
0.821405 0.467302 0.196300
0.157603 0.477938 0.203016
0.200152 0.480064 0.202484
0.242701 0.482190 0.201953
0.285250 0.484316 0.201421
0.327800 0.486442 0.200890
0.370349 0.488568 0.200358
0.412898 0.490694 0.199827
0.455448 0.492820 0.199295
0.497997 0.494946 0.198764
0.540546 0.497072 0.198232
0.583095 0.499198 0.197701
0.625645 0.501324 0.197169
0.668194 0.503450 0.196638
0.710743 0.505576 0.196106
0.753292 0.507702 0.195575
0.795841 0.509828 0.195043
0.838391 0.511954 0.194512
0.174589 0.522590 0.201228
0.217138 0.524716 0.200696
0.259687 0.526842 0.200164
0.302237 0.528968 0.199633
0.344786 0.531094 0.199102
0.387335 0.533220 0.198570
0.429884 0.535346 0.198039
0.472434 0.537472 0.197507
0.514983 0.539598 0.196975
0.557532 0.541724 0.196444
0.600081 0.543850 0.195913
0.642630 0.545976 0.195381
0.685180 0.548102 0.194850
0.727729 0.550228 0.194318
0.770278 0.552354 0.193787
0.812828 0.554480 0.193255
0.855377 0.556606 0.192724
0.191575 0.567242 0.199440
0.234124 0.569368 0.198908
0.276673 0.571494 0.198377
0.319222 0.573620 0.197845
0.361772 0.575746 0.197314
0.404321 0.577872 0.196782
0.446870 0.579998 0.196251
0.489420 0.582124 0.195719
0.531969 0.584250 0.195188
0.574518 0.586376 0.194656
0.617067 0.588502 0.194125
0.659617 0.590628 0.193593
0.702166 0.592754 0.193062
0.744715 0.594880 0.192530
0.787264 0.597006 0.191999
0.829813 0.599132 0.191467
0.872363 0.601258 0.190936
0.208561 0.611894 0.197652
0.251110 0.614020 0.197120
0.293659 0.616146 0.196589
0.336209 0.618272 0.196057
0.378758 0.620398 0.195526
0.421307 0.622524 0.194994
0.463856 0.624650 0.194463
0.506406 0.626776 0.193931
0.548955 0.628902 0.193400
0.591504 0.631028 0.192868
0.634053 0.633154 0.192337
0.676602 0.635280 0.191805
0.719152 0.637406 0.191274
0.761701 0.639532 0.190742
0.804250 0.641658 0.190211
0.846800 0.643784 0.189679
0.889349 0.645910 0.189148
0.225547 0.656546 0.195863
0.268096 0.658672 0.195332
0.310645 0.660798 0.194801
0.353195 0.662924 0.194269
0.395744 0.665050 0.193738
0.438293 0.667176 0.193206
0.480842 0.669302 0.192674
0.523392 0.671428 0.192143
0.565941 0.673554 0.191612
0.608490 0.675680 0.191080
0.651039 0.677806 0.190549
0.693588 0.679932 0.190017
0.736138 0.682058 0.189486
0.778687 0.684184 0.188954
0.821236 0.686310 0.188423
0.863786 0.688436 0.187891
0.906335 0.690562 0.187360
0.242533 0.701198 0.194076
0.285082 0.703324 0.193544
0.327631 0.705450 0.193013
0.370181 0.707576 0.192481
0.412730 0.709702 0.191950
0.455279 0.711828 0.191418
0.497828 0.713954 0.190887
0.540377 0.716080 0.190355
0.582927 0.718206 0.189824
0.625476 0.720332 0.189292
0.668025 0.722458 0.188761
0.710574 0.724584 0.188229
0.753124 0.726710 0.187698
0.795673 0.728836 0.187166
0.838222 0.730962 0.186635
0.880772 0.733088 0.186103
0.923321 0.735214 0.185572
0.259519 0.745850 0.192288
0.302068 0.747976 0.191756
0.344617 0.750102 0.191225
0.387166 0.752228 0.190693
0.429716 0.754354 0.190162
0.472265 0.756480 0.189630
0.514814 0.758606 0.189099
0.557363 0.760732 0.188567
0.599913 0.762858 0.188036
0.642462 0.764984 0.187504
0.685011 0.767110 0.186972
0.727560 0.769236 0.186441
0.770110 0.771362 0.185910
0.812659 0.773488 0.185378
0.855208 0.775614 0.184846
0.897757 0.777740 0.184315
0.940307 0.779866 0.183784
0.276505 0.790502 0.190500
0.319054 0.792628 0.189968
0.361603 0.794754 0.189437
0.404153 0.796880 0.188905
0.446702 0.799006 0.188373
0.489251 0.801132 0.187842
0.531800 0.803258 0.187311
0.574350 0.805384 0.186779
0.616899 0.807510 0.186248
0.659448 0.809636 0.185716
0.701997 0.811762 0.185185
0.744546 0.813888 0.184653
0.787096 0.816014 0.184121
0.829645 0.818140 0.183590
0.872194 0.820266 0.183059
0.914744 0.822392 0.182527
0.957293 0.824518 0.181996
0.293491 0.835154 0.188712
0.336040 0.837280 0.188180
0.378589 0.839406 0.187649
0.421139 0.841532 0.187117
0.463688 0.843658 0.186586
0.506237 0.845784 0.186054
0.548786 0.847910 0.185523
0.591336 0.850036 0.184991
0.633885 0.852162 0.184459
0.676434 0.854288 0.183928
0.718983 0.856414 0.183396
0.761532 0.858540 0.182865
0.804082 0.860666 0.182334
0.846631 0.862792 0.181802
0.889180 0.864918 0.181271
0.931730 0.867044 0.180739
0.974279 0.869170 0.180207
0.023430 0.121444 0.254639
0.065979 0.123570 0.254108
0.108528 0.125696 0.253576
0.151077 0.127822 0.253045
0.193627 0.129948 0.252513
0.236176 0.132074 0.251982
0.278725 0.134200 0.251450
0.321274 0.136326 0.250918
0.363824 0.138452 0.250387
0.406373 0.140578 0.249856
0.448922 0.142704 0.249324
0.491471 0.144830 0.248793
0.534021 0.146956 0.248261
0.576570 0.149082 0.247729
0.619119 0.151208 0.247198
0.661668 0.153334 0.246667
0.704217 0.155460 0.246135
0.040416 0.166096 0.252851
0.082965 0.168222 0.252319
0.125514 0.170348 0.251788
0.168063 0.172474 0.251256
0.210613 0.174600 0.250725
0.253162 0.176726 0.250194
0.295711 0.178852 0.249662
0.338260 0.180978 0.249131
0.380810 0.183104 0.248599
0.423359 0.185230 0.248068
0.465908 0.187356 0.247536
0.508457 0.189482 0.247005
0.551006 0.191608 0.246473
0.593556 0.193734 0.245941
0.636105 0.195860 0.245410
0.678654 0.197986 0.244878
0.721203 0.200112 0.244347
0.057401 0.210748 0.251063
0.099951 0.212874 0.250532
0.142500 0.215000 0.250000
0.185049 0.217126 0.249469
0.227599 0.219252 0.248937
0.270148 0.221378 0.248406
0.312697 0.223504 0.247874
0.355246 0.225630 0.247343
0.397795 0.227756 0.246811
0.440345 0.229882 0.246280
0.482894 0.232008 0.245748
0.525443 0.234134 0.245217
0.567993 0.236260 0.244685
0.610542 0.238386 0.244154
0.653091 0.240512 0.243622
0.695640 0.242638 0.243091
0.738190 0.244764 0.242559
0.074388 0.255400 0.249275
0.116937 0.257526 0.248744
0.159486 0.259652 0.248212
0.202035 0.261778 0.247681
0.244585 0.263904 0.247149
0.287134 0.266030 0.246618
0.329683 0.268156 0.246086
0.372232 0.270282 0.245555
0.414782 0.272408 0.245023
0.457331 0.274534 0.244492
0.499880 0.276660 0.243960
0.542429 0.278786 0.243428
0.584978 0.280912 0.242897
0.627528 0.283038 0.242366
0.670077 0.285164 0.241834
0.712626 0.287290 0.241303
0.755175 0.289416 0.240771
0.091373 0.300052 0.247487
0.133923 0.302178 0.246955
0.176472 0.304304 0.246424
0.219021 0.306430 0.245893
0.261570 0.308556 0.245361
0.304120 0.310682 0.244829
0.346669 0.312808 0.244298
0.389218 0.314934 0.243766
0.431767 0.317060 0.243235
0.474317 0.319186 0.242704
0.516866 0.321312 0.242172
0.559415 0.323438 0.241641
0.601965 0.325564 0.241109
0.644514 0.327690 0.240577
0.687063 0.329816 0.240046
0.729612 0.331942 0.239515
0.772161 0.334068 0.238983
0.108359 0.344704 0.245699
0.150909 0.346830 0.245168
0.193458 0.348956 0.244636
0.236007 0.351082 0.244105
0.278556 0.353208 0.243573
0.321106 0.355334 0.243041
0.363655 0.357460 0.242510
0.406204 0.359586 0.241979
0.448754 0.361712 0.241447
0.491303 0.363838 0.240916
0.533852 0.365964 0.240384
0.576401 0.368090 0.239852
0.618950 0.370216 0.239321
0.661500 0.372342 0.238789
0.704049 0.374468 0.238258
0.746598 0.376594 0.237727
0.789148 0.378720 0.237195
0.125345 0.389356 0.243911
0.167895 0.391482 0.243380
0.210444 0.393608 0.242848
0.252993 0.395734 0.242316
0.295543 0.397860 0.241785
0.338092 0.399986 0.241254
0.380641 0.402112 0.240722
0.423190 0.404238 0.240191
0.465739 0.406364 0.239659
0.508289 0.408490 0.239127
0.550838 0.410616 0.238596
0.593387 0.412742 0.238065
0.635936 0.414868 0.237533
0.678486 0.416994 0.237002
0.721035 0.419120 0.236470
0.763584 0.421246 0.235938
0.806134 0.423372 0.235407
0.142331 0.434008 0.242123
0.184881 0.436134 0.241592
0.227430 0.438260 0.241060
0.269979 0.440386 0.240529
0.312528 0.442512 0.239997
0.355078 0.444638 0.239466
0.397627 0.446764 0.238934
0.440176 0.448890 0.238403
0.482725 0.451016 0.237871
0.525275 0.453142 0.237339
0.567824 0.455268 0.236808
0.610373 0.457394 0.236277
0.652922 0.459520 0.235745
0.695472 0.461646 0.235214
0.738021 0.463772 0.234682
0.780570 0.465898 0.234150
0.823120 0.468024 0.233619
0.159318 0.478660 0.240335
0.201867 0.480786 0.239804
0.244416 0.482912 0.239272
0.286965 0.485038 0.238741
0.329514 0.487164 0.238209
0.372064 0.489290 0.237678
0.414613 0.491416 0.237146
0.457162 0.493542 0.236615
0.499711 0.495668 0.236083
0.542261 0.497794 0.235552
0.584810 0.499920 0.235020
0.627359 0.502046 0.234489
0.669908 0.504172 0.233957
0.712458 0.506298 0.233426
0.755007 0.508424 0.232894
0.797556 0.510550 0.232363
0.840105 0.512676 0.231831
0.176304 0.523312 0.238547
0.218853 0.525438 0.238015
0.261402 0.527564 0.237484
0.303951 0.529690 0.236953
0.346500 0.531816 0.236421
0.389050 0.533942 0.235890
0.431599 0.536068 0.235358
0.474148 0.538194 0.234826
0.516697 0.540320 0.234295
0.559247 0.542446 0.233764
0.601796 0.544572 0.233232
0.644345 0.546698 0.232701
0.686894 0.548824 0.232169
0.729444 0.550950 0.231637
0.771993 0.553076 0.231106
0.814542 0.555202 0.230575
0.857091 0.557328 0.230043
0.193290 0.567964 0.236759
0.235839 0.570090 0.236227
0.278388 0.572216 0.235696
0.320937 0.574342 0.235164
0.363486 0.576468 0.234633
0.406036 0.578594 0.234102
0.448585 0.580720 0.233570
0.491134 0.582846 0.233038
0.533683 0.584972 0.232507
0.576233 0.587098 0.231976
0.618782 0.589224 0.231444
0.661331 0.591350 0.230913
0.703880 0.593476 0.230381
0.746430 0.595602 0.229849
0.788979 0.597728 0.229318
0.831528 0.599854 0.228787
0.874077 0.601980 0.228255
0.210275 0.612616 0.234971
0.252825 0.614742 0.234440
0.295374 0.616868 0.233908
0.337923 0.618994 0.233377
0.380472 0.621120 0.232845
0.423022 0.623246 0.232314
0.465571 0.625372 0.231782
0.508120 0.627498 0.231251
0.550669 0.629624 0.230719
0.593219 0.631750 0.230187
0.635768 0.633876 0.229656
0.678317 0.636002 0.229125
0.720866 0.638128 0.228593
0.763416 0.640254 0.228062
0.805965 0.642380 0.227530
0.848514 0.644506 0.226998
0.891064 0.646632 0.226467
0.227261 0.657268 0.233183
0.269811 0.659394 0.232652
0.312360 0.661520 0.232120
0.354909 0.663646 0.231589
0.397458 0.665772 0.231057
0.440008 0.667898 0.230525
0.482557 0.670024 0.229994
0.525106 0.672150 0.229463
0.567655 0.674276 0.228931
0.610205 0.676402 0.228400
0.652754 0.678528 0.227868
0.695303 0.680654 0.227336
0.737853 0.682780 0.226805
0.780402 0.684906 0.226274
0.822951 0.687032 0.225742
0.865500 0.689158 0.225211
0.908049 0.691284 0.224679
0.244247 0.701920 0.231395
0.286797 0.704046 0.230863
0.329346 0.706172 0.230332
0.371895 0.708298 0.229801
0.414444 0.710424 0.229269
0.456994 0.712550 0.228737
0.499543 0.714676 0.228206
0.542092 0.716802 0.227675
0.584642 0.718928 0.227143
0.627191 0.721054 0.226612
0.669740 0.723180 0.226080
0.712289 0.725306 0.225549
0.754838 0.727432 0.225017
0.797388 0.729558 0.224486
0.839937 0.731684 0.223954
0.882486 0.733810 0.223422
0.925036 0.735936 0.222891
0.261233 0.746572 0.229607
0.303783 0.748698 0.229075
0.346332 0.750824 0.228544
0.388881 0.752950 0.228013
0.431430 0.755076 0.227481
0.473980 0.757202 0.226950
0.516529 0.759328 0.226418
0.559078 0.761454 0.225886
0.601627 0.763580 0.225355
0.644177 0.765706 0.224824
0.686726 0.767832 0.224292
0.729275 0.769958 0.223761
0.771824 0.772084 0.223229
0.814374 0.774210 0.222697
0.856923 0.776336 0.222166
0.899472 0.778462 0.221635
0.942021 0.780588 0.221103
0.278220 0.791224 0.227819
0.320769 0.793350 0.227288
0.363318 0.795476 0.226756
0.405867 0.797602 0.226224
0.448416 0.799728 0.225693
0.490966 0.801854 0.225162
0.533515 0.803980 0.224630
0.576064 0.806106 0.224098
0.618613 0.808232 0.223567
0.661163 0.810358 0.223035
0.703712 0.812484 0.222504
0.746261 0.814610 0.221973
0.788810 0.816736 0.221441
0.831360 0.818862 0.220909
0.873909 0.820988 0.220378
0.916458 0.823114 0.219847
0.959008 0.825240 0.219315
0.295205 0.835876 0.226031
0.337755 0.838002 0.225500
0.380304 0.840128 0.224968
0.422853 0.842254 0.224437
0.465403 0.844380 0.223905
0.507952 0.846506 0.223374
0.550501 0.848632 0.222842
0.593050 0.850758 0.222310
0.635599 0.852884 0.221779
0.678149 0.855010 0.221247
0.720698 0.857136 0.220716
0.763247 0.859262 0.220185
0.805796 0.861388 0.219653
0.848346 0.863514 0.219121
0.890895 0.865640 0.218590
0.933444 0.867766 0.218058
0.975993 0.869892 0.217527
0.025144 0.122166 0.291959
0.067694 0.124292 0.291427
0.110243 0.126418 0.290896
0.152792 0.128544 0.290364
0.195341 0.130670 0.289832
0.237891 0.132796 0.289301
0.280440 0.134922 0.288770
0.322989 0.137048 0.288238
0.365538 0.139174 0.287706
0.408087 0.141300 0.287175
0.450637 0.143426 0.286643
0.493186 0.145552 0.286112
0.535735 0.147678 0.285581
0.578284 0.149804 0.285049
