luts/TealOrange_Synth.cube
# Synthesised teal-orange split-tone test LUT
# Shadows pulled toward teal (low R, lifted G/B), highlights toward orange.
TITLE "TealOrange Synth Test"
LUT_3D_SIZE 9
DOMAIN_MIN 0.0 0.0 0.0
DOMAIN_MAX 1.0 1.0 1.0
0.020000 0.120000 0.180000
0.105098 0.124252 0.178937
0.190197 0.128504 0.177874
0.275295 0.132756 0.176811
0.360394 0.137008 0.175748
0.445493 0.141260 0.174685
0.530591 0.145512 0.173622
0.615690 0.149764 0.172559
0.700788 0.154016 0.171496
0.053972 0.209304 0.176424
0.139070 0.213556 0.175361
0.224169 0.217808 0.174298
0.309267 0.222060 0.173235
0.394366 0.226312 0.172172
0.479465 0.230564 0.171109
0.564563 0.234816 0.170046
0.649662 0.239068 0.168983
0.734760 0.243320 0.167920
0.087944 0.298608 0.172848
0.173042 0.302860 0.171785
0.258141 0.307112 0.170722
0.343239 0.311364 0.169659
0.428338 0.315616 0.168596
0.513437 0.319868 0.167533
0.598535 0.324120 0.166470
0.683634 0.328372 0.165407
0.768732 0.332624 0.164344
0.121916 0.387912 0.169272
0.207014 0.392164 0.168209
0.292113 0.396416 0.167146
0.377211 0.400668 0.166083
0.462310 0.404920 0.165020
0.547408 0.409172 0.163957
0.632507 0.413424 0.162894
0.717606 0.417676 0.161831
0.802704 0.421928 0.160768
0.155888 0.477216 0.165696
0.240986 0.481468 0.164633
0.326085 0.485720 0.163570
0.411183 0.489972 0.162507
0.496282 0.494224 0.161444
0.581380 0.498476 0.160381
0.666479 0.502728 0.159318
0.751578 0.506980 0.158255
0.836676 0.511232 0.157192
0.189860 0.566520 0.162120
0.274958 0.570772 0.161057
0.360057 0.575024 0.159994
0.445155 0.579276 0.158931
0.530254 0.583528 0.157868
0.615352 0.587780 0.156805
0.700451 0.592032 0.155742
0.785550 0.596284 0.154679
0.870648 0.600536 0.153616
0.223832 0.655824 0.158544
0.308930 0.660076 0.157481
0.394029 0.664328 0.156418
0.479127 0.668580 0.155355
0.564226 0.672832 0.154292
0.649325 0.677084 0.153229
0.734423 0.681336 0.152166
0.819522 0.685588 0.151103
0.904620 0.689840 0.150040
0.257804 0.745128 0.154968
0.342902 0.749380 0.153905
0.428001 0.753632 0.152842
0.513100 0.757884 0.151779
0.598198 0.762136 0.150716
0.683296 0.766388 0.149653
0.768395 0.770640 0.148590
0.853494 0.774892 0.147527
0.938592 0.779144 0.146464
0.291776 0.834432 0.151392
0.376875 0.838684 0.150329
0.461973 0.842936 0.149266
0.547071 0.847188 0.148203
0.632170 0.851440 0.147140
0.717268 0.855692 0.146077
0.802367 0.859944 0.145014
0.887466 0.864196 0.143951
0.972564 0.868448 0.142888
0.023430 0.121444 0.254639
0.108528 0.125696 0.253576
0.193627 0.129948 0.252513
0.278725 0.134200 0.251450
0.363824 0.138452 0.250387
0.448922 0.142704 0.249324
0.534021 0.146956 0.248261
0.619119 0.151208 0.247198
0.704217 0.155460 0.246135
0.057401 0.210748 0.251063
0.142500 0.215000 0.250000
0.227599 0.219252 0.248937
0.312697 0.223504 0.247874
0.397795 0.227756 0.246811
0.482894 0.232008 0.245748
0.567993 0.236260 0.244685
0.653091 0.240512 0.243622
0.738190 0.244764 0.242559
0.091373 0.300052 0.247487
0.176472 0.304304 0.246424
0.261570 0.308556 0.245361
0.346669 0.312808 0.244298
0.431767 0.317060 0.243235
0.516866 0.321312 0.242172
0.601965 0.325564 0.241109
0.687063 0.329816 0.240046
0.772161 0.334068 0.238983
0.125345 0.389356 0.243911
0.210444 0.393608 0.242848
0.295543 0.397860 0.241785
0.380641 0.402112 0.240722
0.465739 0.406364 0.239659
0.550838 0.410616 0.238596
0.635936 0.414868 0.237533
0.721035 0.419120 0.236470
0.806134 0.423372 0.235407
0.159318 0.478660 0.240335
0.244416 0.482912 0.239272
0.329514 0.487164 0.238209
0.414613 0.491416 0.237146
0.499711 0.495668 0.236083
0.584810 0.499920 0.235020
0.669908 0.504172 0.233957
0.755007 0.508424 0.232894
0.840105 0.512676 0.231831
0.193290 0.567964 0.236759
0.278388 0.572216 0.235696
0.363486 0.576468 0.234633
0.448585 0.580720 0.233570
0.533683 0.584972 0.232507
0.618782 0.589224 0.231444
0.703880 0.593476 0.230381
0.788979 0.597728 0.229318
0.874077 0.601980 0.228255
0.227261 0.657268 0.233183
0.312360 0.661520 0.232120
0.397458 0.665772 0.231057
0.482557 0.670024 0.229994
0.567655 0.674276 0.228931
0.652754 0.678528 0.227868
0.737853 0.682780 0.226805
0.822951 0.687032 0.225742
0.908049 0.691284 0.224679
0.261233 0.746572 0.229607
0.346332 0.750824 0.228544
0.431430 0.755076 0.227481
0.516529 0.759328 0.226418
0.601627 0.763580 0.225355
0.686726 0.767832 0.224292
0.771824 0.772084 0.223229
0.856923 0.776336 0.222166
0.942021 0.780588 0.221103
0.295205 0.835876 0.226031
0.380304 0.840128 0.224968
0.465403 0.844380 0.223905
0.550501 0.848632 0.222842
0.635599 0.852884 0.221779
0.720698 0.857136 0.220716
0.805796 0.861388 0.219653
0.890895 0.865640 0.218590
0.975993 0.869892 0.217527
0.026859 0.122888 0.329278
0.111957 0.127140 0.328215
0.197056 0.131392 0.327152
0.282154 0.135644 0.326089
0.367253 0.139896 0.325026
0.452352 0.144148 0.323963
0.537450 0.148400 0.322900
0.622549 0.152652 0.321837
0.707647 0.156904 0.320774
0.060831 0.212192 0.325702
0.145929 0.216444 0.324639
0.231028 0.220696 0.323576
0.316126 0.224948 0.322513
0.401225 0.229200 0.321450
0.486324 0.233452 0.320387
0.571422 0.237704 0.319324
0.656521 0.241956 0.318261
0.741619 0.246208 0.317198
0.094803 0.301496 0.322126
0.179901 0.305748 0.321063
0.265000 0.310000 0.320000
0.350098 0.314252 0.318937
0.435197 0.318504 0.317874
0.520296 0.322756 0.316811
0.605394 0.327008 0.315748
0.690493 0.331260 0.314685
0.775591 0.335512 0.313622
0.128775 0.390800 0.318550
0.213873 0.395052 0.317487
0.298972 0.399304 0.316424
0.384070 0.403556 0.315361
0.469169 0.407808 0.314298
0.554268 0.412060 0.313235
0.639366 0.416312 0.312172
0.724465 0.420564 0.311109
0.809563 0.424816 0.310046
0.162747 0.480104 0.314974
0.247845 0.484356 0.313911
0.332944 0.488608 0.312848
0.418042 0.492860 0.311785
0.503141 0.497112 0.310722
0.588240 0.501364 0.309659
0.673338 0.505616 0.308596
0.758437 0.509868 0.307533
0.843535 0.514120 0.306470
0.196719 0.569408 0.311398
0.281817 0.573660 0.310335
0.366916 0.577912 0.309272
0.452014 0.582164 0.308209
0.537113 0.586416 0.307146
0.622211 0.590668 0.306083
0.707310 0.594920 0.305020
0.792409 0.599172 0.303957
0.877507 0.603424 0.302894
0.230691 0.658712 0.307822
0.315790 0.662964 0.306759
0.400888 0.667216 0.305696
0.485986 0.671468 0.304633
0.571085 0.675720 0.303570
0.656184 0.679972 0.302507
0.741282 0.684224 0.301444
0.826381 0.688476 0.300381
0.911479 0.692728 0.299318
0.264663 0.748016 0.304246
0.349762 0.752268 0.303183
0.434860 0.756520 0.302120
0.519958 0.760772 0.301057
0.605057 0.765024 0.299994
0.690156 0.769276 0.298931
0.775254 0.773528 0.297868
0.860353 0.777780 0.296805
0.945451 0.782032 0.295742
0.298635 0.837320 0.300670
0.383734 0.841572 0.299607
0.468832 0.845824 0.298544
0.553930 0.850076 0.297481
0.639029 0.854328 0.296418
0.724128 0.858580 0.295355
0.809226 0.862832 0.294292
0.894324 0.867084 0.293229
0.979423 0.871336 0.292166
0.030289 0.124332 0.403917
0.115387 0.128584 0.402854
0.200486 0.132836 0.401791
0.285584 0.137088 0.400728
0.370683 0.141340 0.399665
0.455781 0.145592 0.398602
0.540879 0.149844 0.397539
0.625978 0.154096 0.396476
0.711077 0.158348 0.395413
0.064260 0.213636 0.400341
0.149359 0.217888 0.399278
0.234458 0.222140 0.398215
0.319556 0.226392 0.397152
0.404655 0.230644 0.396089
0.489753 0.234896 0.395026
0.574851 0.239148 0.393963
0.659950 0.243400 0.392900
0.745049 0.247652 0.391837
0.098233 0.302940 0.396765
0.183331 0.307192 0.395702
0.268429 0.311444 0.394639
0.353528 0.315696 0.393576
0.438627 0.319948 0.392513
0.523725 0.324200 0.391450
0.608823 0.328452 0.390387
0.693922 0.332704 0.389324
0.779021 0.336956 0.388261
0.132205 0.392244 0.393189
0.217303 0.396496 0.392126
0.302401 0.400748 0.391063
0.387500 0.405000 0.390000
0.472599 0.409252 0.388937
0.557697 0.413504 0.387874
0.642795 0.417756 0.386811
0.727894 0.422008 0.385748
0.812993 0.426260 0.384685
0.166177 0.481548 0.389613
0.251275 0.485800 0.388550
0.336373 0.490052 0.387487
0.421472 0.494304 0.386424
0.506571 0.498556 0.385361
0.591669 0.502808 0.384298
0.676767 0.507060 0.383235
0.761866 0.511312 0.382172
0.846965 0.515564 0.381109
0.200148 0.570852 0.386037
0.285247 0.575104 0.384974
0.370345 0.579356 0.383911
0.455444 0.583608 0.382848
0.540542 0.587860 0.381785
0.625641 0.592112 0.380722
0.710739 0.596364 0.379659
0.795838 0.600616 0.378596
0.880937 0.604868 0.377533
0.234121 0.660156 0.382461
0.319219 0.664408 0.381398
0.404317 0.668660 0.380335
0.489416 0.672912 0.379272
0.574515 0.677164 0.378209
0.659613 0.681416 0.377146
0.744711 0.685668 0.376083
0.829810 0.689920 0.375020
0.914909 0.694172 0.373957
0.268092 0.749460 0.378885
0.353191 0.753712 0.377822
0.438289 0.757964 0.376759
0.523388 0.762216 0.375696
0.608486 0.766468 0.374633
0.693585 0.770720 0.373570
0.778683 0.774972 0.372507
0.863782 0.779224 0.371444
0.948881 0.783476 0.370381
0.302064 0.838764 0.375309
0.387163 0.843016 0.374246
0.472262 0.847268 0.373183
0.557360 0.851520 0.372120
0.642459 0.855772 0.371057
0.727557 0.860024 0.369994
0.812655 0.864276 0.368931
0.897754 0.868528 0.367868
0.982852 0.872780 0.366805
0.033718 0.125776 0.478556
0.118817 0.130028 0.477493
0.203915 0.134280 0.476430
0.289013 0.138532 0.475367
0.374112 0.142784 0.474304
0.459211 0.147036 0.473241
0.544309 0.151288 0.472178
0.629408 0.155540 0.471115
0.714506 0.159792 0.470052
0.067690 0.215080 0.474980
0.152788 0.219332 0.473917
0.237887 0.223584 0.472854
0.322985 0.227836 0.471791
0.408084 0.232088 0.470728
0.493183 0.236340 0.469665
0.578281 0.240592 0.468602
0.663380 0.244844 0.467539
0.748478 0.249096 0.466476
0.101662 0.304384 0.471404
0.186760 0.308636 0.470341
0.271859 0.312888 0.469278
0.356958 0.317140 0.468215
0.442056 0.321392 0.467152
0.527154 0.325644 0.466089
0.612253 0.329896 0.465026
0.697352 0.334148 0.463963
0.782450 0.338400 0.462900
0.135634 0.393688 0.467828
0.220732 0.397940 0.466765
0.305831 0.402192 0.465702
0.390929 0.406444 0.464639
0.476028 0.410696 0.463576
0.561127 0.414948 0.462513
0.646225 0.419200 0.461450
0.731324 0.423452 0.460387
0.816422 0.427704 0.459324
0.169606 0.482992 0.464252
0.254705 0.487244 0.463189
0.339803 0.491496 0.462126
0.424901 0.495748 0.461063
0.510000 0.500000 0.460000
0.595098 0.504252 0.458937
0.680197 0.508504 0.457874
0.765296 0.512756 0.456811
0.850394 0.517008 0.455748
0.203578 0.572296 0.460676
0.288677 0.576548 0.459613
0.373775 0.580800 0.458550
0.458874 0.585052 0.457487
0.543972 0.589304 0.456424
0.629071 0.593556 0.455361
0.714169 0.597808 0.454298
0.799268 0.602060 0.453235
0.884366 0.606312 0.452172
0.237550 0.661600 0.457100
0.322649 0.665852 0.456037
0.407747 0.670104 0.454974
0.492845 0.674356 0.453911
0.577944 0.678608 0.452848
0.663042 0.682860 0.451785
0.748141 0.687112 0.450722
0.833240 0.691364 0.449659
0.918338 0.695616 0.448596
0.271522 0.750904 0.453524
0.356621 0.755156 0.452461
0.441719 0.759408 0.451398
0.526817 0.763660 0.450335
0.611916 0.767912 0.449272
0.697015 0.772164 0.448209
0.782113 0.776416 0.447146
0.867212 0.780668 0.446083
0.952310 0.784920 0.445020
0.305494 0.840208 0.449948
0.390593 0.844460 0.448885
0.475691 0.848712 0.447822
0.560790 0.852964 0.446759
0.645888 0.857216 0.445696
0.730986 0.861468 0.444633
0.816085 0.865720 0.443570
0.901184 0.869972 0.442507
0.986282 0.874224 0.441444
0.037147 0.127220 0.553195
0.122246 0.131472 0.552132
0.207344 0.135724 0.551069
0.292443 0.139976 0.550006
0.377541 0.144228 0.548943
0.462640 0.148480 0.547880
0.547738 0.152732 0.546817
0.632837 0.156984 0.545754
0.717935 0.161236 0.544691
0.071120 0.216524 0.549619
0.156218 0.220776 0.548556
0.241316 0.225028 0.547493
0.326415 0.229280 0.546430
0.411513 0.233532 0.545367
0.496612 0.237784 0.544304
0.581711 0.242036 0.543241
0.666809 0.246288 0.542178
0.751907 0.250540 0.541115
0.105092 0.305828 0.546043
0.190190 0.310080 0.544980
0.275288 0.314332 0.543917
0.360387 0.318584 0.542854
0.445485 0.322836 0.541791
0.530584 0.327088 0.540728
0.615682 0.331340 0.539665
0.700781 0.335592 0.538602
0.785879 0.339844 0.537539
0.139063 0.395132 0.542467
0.224162 0.399384 0.541404
0.309261 0.403636 0.540341
0.394359 0.407888 0.539278
0.479457 0.412140 0.538215
0.564556 0.416392 0.537152
0.649654 0.420644 0.536089
0.734753 0.424896 0.535026
0.819851 0.429148 0.533963
0.173036 0.484436 0.538891
0.258134 0.488688 0.537828
0.343232 0.492940 0.536765
0.428331 0.497192 0.535702
0.513429 0.501444 0.534639
0.598528 0.505696 0.533576
0.683626 0.509948 0.532513
0.768725 0.514200 0.531450
0.853824 0.518452 0.530387
0.207007 0.573740 0.535315
0.292106 0.577992 0.534252
0.377204 0.582244 0.533189
0.462303 0.586496 0.532126
0.547401 0.590748 0.531063
0.632500 0.595000 0.530000
0.717599 0.599252 0.528937
0.802697 0.603504 0.527874
0.887795 0.607756 0.526811
0.240980 0.663044 0.531739
0.326078 0.667296 0.530676
0.411177 0.671548 0.529613
0.496275 0.675800 0.528550
0.581373 0.680052 0.527487
0.666472 0.684304 0.526424
0.751570 0.688556 0.525361
0.836669 0.692808 0.524298
0.921767 0.697060 0.523235
0.274951 0.752348 0.528163
0.360050 0.756600 0.527100
0.445148 0.760852 0.526037
0.530247 0.765104 0.524974
0.615345 0.769356 0.523911
0.700444 0.773608 0.522848
0.785542 0.777860 0.521785
0.870641 0.782112 0.520722
0.955739 0.786364 0.519659
0.308923 0.841652 0.524587
0.394022 0.845904 0.523524
0.479120 0.850156 0.522461
0.564219 0.854408 0.521398
0.649317 0.858660 0.520335
0.734416 0.862912 0.519272
0.819514 0.867164 0.518209
0.904613 0.871416 0.517146
0.989711 0.875668 0.516083
0.040577 0.128664 0.627834
0.125675 0.132916 0.626771
0.210774 0.137168 0.625708
0.295872 0.141420 0.624645
0.380971 0.145672 0.623582
0.466070 0.149924 0.622519
0.551168 0.154176 0.621456
0.636267 0.158428 0.620393
0.721365 0.162680 0.619330
0.074549 0.217968 0.624258
0.159647 0.222220 0.623195
0.244746 0.226472 0.622132
0.329844 0.230724 0.621069
0.414943 0.234976 0.620006
0.500042 0.239228 0.618943
0.585140 0.243480 0.617880
0.670238 0.247732 0.616817
0.755337 0.251984 0.615754
0.108521 0.307272 0.620682
0.193619 0.311524 0.619619
0.278718 0.315776 0.618556
0.363816 0.320028 0.617493
0.448915 0.324280 0.616430
0.534014 0.328532 0.615367
0.619112 0.332784 0.614304
0.704211 0.337036 0.613241
0.789309 0.341288 0.612178
0.142493 0.396576 0.617106
0.227592 0.400828 0.616043
0.312690 0.405080 0.614980
0.397788 0.409332 0.613917
0.482887 0.413584 0.612854
0.567986 0.417836 0.611791
0.653084 0.422088 0.610728
0.738183 0.426340 0.609665
0.823281 0.430592 0.608602
0.176465 0.485880 0.613530
0.261564 0.490132 0.612467
0.346662 0.494384 0.611404
0.431760 0.498636 0.610341
0.516859 0.502888 0.609278
0.601958 0.507140 0.608215
0.687056 0.511392 0.607152
0.772155 0.515644 0.606089
0.857253 0.519896 0.605026
0.210437 0.575184 0.609954
0.295536 0.579436 0.608891
0.380634 0.583688 0.607828
0.465732 0.587940 0.606765
0.550831 0.592192 0.605702
0.635930 0.596444 0.604639
0.721028 0.600696 0.603576
0.806126 0.604948 0.602513
0.891225 0.609200 0.601450
0.244409 0.664488 0.606378
0.329508 0.668740 0.605315
0.414606 0.672992 0.604252
0.499705 0.677244 0.603189
0.584803 0.681496 0.602126
0.669902 0.685748 0.601063
0.755000 0.690000 0.600000
0.840099 0.694252 0.598937
0.925197 0.698504 0.597874
0.278381 0.753792 0.602802
0.363480 0.758044 0.601739
0.448578 0.762296 0.600676
0.533676 0.766548 0.599613
0.618775 0.770800 0.598550
0.703874 0.775052 0.597487
0.788972 0.779304 0.596424
0.874070 0.783556 0.595361
0.959169 0.787808 0.594298
0.312353 0.843096 0.599226
0.397452 0.847348 0.598163
0.482550 0.851600 0.597100
0.567649 0.855852 0.596037
0.652747 0.860104 0.594974
0.737845 0.864356 0.593911
0.822944 0.868608 0.592848
0.908043 0.872860 0.591785
0.993141 0.877112 0.590722
0.044007 0.130108 0.702473
0.129105 0.134360 0.701410
0.214203 0.138612 0.700347
0.299302 0.142864 0.699284
0.384400 0.147116 0.698221
0.469499 0.151368 0.697158
0.554597 0.155620 0.696095
0.639696 0.159872 0.695032
0.724795 0.164124 0.693969
0.077979 0.219412 0.698897
0.163077 0.223664 0.697834
0.248175 0.227916 0.696771
0.333274 0.232168 0.695708
0.418372 0.236420 0.694645
0.503471 0.240672 0.693582
0.588569 0.244924 0.692519
0.673668 0.249176 0.691456
0.758767 0.253428 0.690393
0.111951 0.308716 0.695321
0.197049 0.312968 0.694258
0.282147 0.317220 0.693195
0.367246 0.321472 0.692132
0.452344 0.325724 0.691069
0.537443 0.329976 0.690006
0.622541 0.334228 0.688943
0.707640 0.338480 0.687880
0.792739 0.342732 0.686817
0.145923 0.398020 0.691745
0.231021 0.402272 0.690682
0.316119 0.406524 0.689619
0.401218 0.410776 0.688556
0.486316 0.415028 0.687493
0.571415 0.419280 0.686430
0.656513 0.423532 0.685367
0.741612 0.427784 0.684304
0.826711 0.432036 0.683241
0.179894 0.487324 0.688169
0.264993 0.491576 0.687106
0.350091 0.495828 0.686043
0.435190 0.500080 0.684980
0.520288 0.504332 0.683917
0.605387 0.508584 0.682854
0.690485 0.512836 0.681791
0.775584 0.517088 0.680728
0.860683 0.521340 0.679665
0.213866 0.576628 0.684593
0.298965 0.580880 0.683530
0.384064 0.585132 0.682467
0.469162 0.589384 0.681404
0.554260 0.593636 0.680341
0.639359 0.597888 0.679278
0.724457 0.602140 0.678215
0.809556 0.606392 0.677152
0.894654 0.610644 0.676089
0.247838 0.665932 0.681017
0.332937 0.670184 0.679954
0.418036 0.674436 0.678891
0.503134 0.678688 0.677828
0.588233 0.682940 0.676765
0.673331 0.687192 0.675702
0.758429 0.691444 0.674639
0.843528 0.695696 0.673576
0.928627 0.699948 0.672513
0.281810 0.755236 0.677441
0.366909 0.759488 0.676378
0.452008 0.763740 0.675315
0.537106 0.767992 0.674252
0.622205 0.772244 0.673189
0.707303 0.776496 0.672126
0.792401 0.780748 0.671063
0.877500 0.785000 0.670000
0.962598 0.789252 0.668937
0.315783 0.844540 0.673865
0.400881 0.848792 0.672802
0.485980 0.853044 0.671739
0.571078 0.857296 0.670676
0.656176 0.861548 0.669613
0.741275 0.865800 0.668550
0.826373 0.870052 0.667487
0.911472 0.874304 0.666424
0.996571 0.878556 0.665361
0.047436 0.131552 0.777112
0.132534 0.135804 0.776049
0.217633 0.140056 0.774986
0.302731 0.144308 0.773923
0.387830 0.148560 0.772860
0.472929 0.152812 0.771797
0.558027 0.157064 0.770734
0.643126 0.161316 0.769671
0.728224 0.165568 0.768608
0.081408 0.220856 0.773536
0.166507 0.225108 0.772473
0.251605 0.229360 0.771410
0.336703 0.233612 0.770347
0.421802 0.237864 0.769284
0.506900 0.242116 0.768221
0.591999 0.246368 0.767158
0.677098 0.250620 0.766095
0.762196 0.254872 0.765032
0.115380 0.310160 0.769960
0.200479 0.314412 0.768897
0.285577 0.318664 0.767834
0.370675 0.322916 0.766771
0.455774 0.327168 0.765708
0.540872 0.331420 0.764645
0.625971 0.335672 0.763582
0.711070 0.339924 0.762519
0.796168 0.344176 0.761456
0.149352 0.399464 0.766384
0.234451 0.403716 0.765321
0.319549 0.407968 0.764258
0.404647 0.412220 0.763195
0.489746 0.416472 0.762132
0.574844 0.420724 0.761069
0.659943 0.424976 0.760006
0.745042 0.429228 0.758943
0.830140 0.433480 0.757880
0.183324 0.488768 0.762808
0.268423 0.493020 0.761745
0.353521 0.497272 0.760682
0.438619 0.501524 0.759619
0.523718 0.505776 0.758556
0.608816 0.510028 0.757493
0.693915 0.514280 0.756430
0.779014 0.518532 0.755367
0.864112 0.522784 0.754304
0.217296 0.578072 0.759232
0.302395 0.582324 0.758169
0.387493 0.586576 0.757106
0.472591 0.590828 0.756043
0.557690 0.595080 0.754980
0.642788 0.599332 0.753917
0.727887 0.603584 0.752854
0.812986 0.607836 0.751791
0.898084 0.612088 0.750728
0.251268 0.667376 0.755656
0.336367 0.671628 0.754593
0.421465 0.675880 0.753530
0.506563 0.680132 0.752467
0.591662 0.684384 0.751404
0.676761 0.688636 0.750341
0.761859 0.692888 0.749278
0.846958 0.697140 0.748215
0.932056 0.701392 0.747152
0.285240 0.756680 0.752080
0.370339 0.760932 0.751017
0.455437 0.765184 0.749954
0.540536 0.769436 0.748891
0.625634 0.773688 0.747828
0.710732 0.777940 0.746765
0.795831 0.782192 0.745702
0.880930 0.786444 0.744639
0.966028 0.790696 0.743576
0.319212 0.845984 0.748504
0.404311 0.850236 0.747441
0.489409 0.854488 0.746378
0.574507 0.858740 0.745315
0.659606 0.862992 0.744252
0.744704 0.867244 0.743189
0.829803 0.871496 0.742126
0.914902 0.875748 0.741063
1.000000 0.880000 0.740000
